src/assets/duotone/LockSlash.svg

<svg width="24" height="24" viewBox="0 0 24 24"  xmlns="http://www.w3.org/2000/svg">
<path d="M13.6298 15.72C13.6298 16.62 12.8998 17.35 11.9998 17.35C11.3598 17.35 10.8098 16.98 10.5498 16.45L12.7298 14.27C13.2598 14.53 13.6298 15.08 13.6298 15.72Z" />
<path opacity="0.4" d="M7.35 9.43994C3.25 9.43994 2 10.6899 2 14.7899V16.6499C2 18.6999 2.31 20.0399 3.14 20.8599L9.1 14.8999C9.38 13.8899 10.17 13.0999 11.18 12.8199L14.56 9.43994H7.35Z" />
<path d="M18.1302 5.87L16.8702 7.13C16.8302 5.35 16.1602 3.4 12.0002 3.4C7.95021 3.4 7.12021 5.35 7.12021 8.28V9.45C6.61021 9.45 6.14021 9.48 5.72021 9.53V8.28C5.72021 5.58 6.37021 2 12.0002 2C15.5402 2 17.6002 3.3 18.1302 5.87Z" />
<path opacity="0.4" d="M21.9999 14.79V16.65C21.9999 20.75 20.7499 22 16.6499 22H7.34992C6.50992 22 5.77992 21.95 5.16992 21.83L9.52992 17.47C10.0899 18.24 10.9799 18.74 11.9999 18.74C13.6699 18.74 15.0199 17.39 15.0199 15.72C15.0199 14.7 14.5199 13.81 13.7499 13.25L17.5399 9.45996C20.9299 9.64996 21.9999 11 21.9999 14.79Z" />
<path d="M21.7699 2.22988C21.4699 1.92988 20.9799 1.92988 20.6799 2.22988L2.22988 20.6899C1.92988 20.9899 1.92988 21.4799 2.22988 21.7799C2.37988 21.9199 2.56988 21.9999 2.76988 21.9999C2.96988 21.9999 3.15988 21.9199 3.30988 21.7699L21.7699 3.30988C22.0799 3.00988 22.0799 2.52988 21.7699 2.22988Z" />
</svg>

<?xml version="1.0" encoding="UTF-8"?>
<svg width="24" height="24" viewBox="0 0 24 24" xmlns="http://www.w3.org/2000/svg">
 <path d="m13.63 15.72c0 0.9-0.73 1.63-1.63 1.63-0.64 0-1.19-0.37-1.45-0.9l2.18-2.18c0.53 0.26 0.9 0.81 0.9 1.45z"/>
 <path d="m7.35 9.4399c-4.1 0-5.35 1.25-5.35 5.35v1.86c0 2.05 0.31 3.39 1.14 4.21l5.96-5.96c0.28-1.01 1.07-1.8 2.08-2.08l3.38-3.38h-7.21z" opacity=".4"/>
 <path d="m18.13 5.87-1.26 1.26c-0.04-1.78-0.71-3.73-4.87-3.73-4.05 0-4.88 1.95-4.88 4.88v1.17c-0.51 0-0.98 0.03-1.4 0.08v-1.25c0-2.7 0.65-6.28 6.28-6.28 3.54 0 5.6 1.3 6.13 3.87z"/>
 <path d="m22 14.79v1.86c0 4.1-1.25 5.35-5.35 5.35h-9.3c-0.84 0-1.57-0.05-2.18-0.17l4.36-4.36c0.55998 0.77 1.45 1.27 2.47 1.27 1.67 0 3.02-1.35 3.02-3.02 0-1.02-0.5-1.91-1.27-2.47l3.79-3.79c3.39 0.19 4.46 1.54 4.46 5.33z" opacity=".4"/>
 <path d="m21.77 2.2299c-0.3-0.3-0.79-0.3-1.09 0l-18.45 18.46c-0.3 0.3-0.3 0.79 0 1.09 0.15 0.14 0.34 0.22 0.54 0.22s0.39-0.08 0.54-0.23l18.46-18.46c0.31-0.3 0.31-0.78 0-1.08z"/>
</svg>
